X:0125
M:2/4
L:1/8
Q:1/2=100
K:E Minor
Ee(ef)   |e2dB|defd     |eBdB|Beef|e2dB |ABdF|E/E/E E2:|

